src/22/panel/gpm-inhibit.svg

<svg xmlns="http://www.w3.org/2000/svg" width="22" height="22" version="1.1">
 <defs>
  <style id="current-color-scheme" type="text/css">
   .ColorScheme-Text { color:#dfdfdf; } .ColorScheme-Highlight { color:#4285f4; }
  </style>
 </defs>
 <path style="fill:currentColor" class="ColorScheme-Text" d="M 3.0195312 3.9863281 C 1.6697036 3.9603871 1.6558037 5.9938126 3.0058594 5.9863281 L 3.0058594 16.986328 C 2.9868079 18.333478 5.0073374 18.336842 5.0039062 17 L 5 17 L 5 4.9570312 C 4.9835929 4.4190908 4.5477664 3.9863823 4.0058594 3.9863281 L 3.0195312 3.9863281 z M 6 4.9863281 L 6 15.986328 L 7.0058594 15.986328 L 7.0058594 17.259766 C 7.0058594 17.986567 7.7324219 17.986328 7.7324219 17.986328 L 8.0058594 17.986328 L 9.0058594 17.986328 L 9.0058594 15.986328 L 11.005859 15.986328 L 11.005859 17.982422 L 13.005859 17.982422 L 13.005859 15.986328 L 15.005859 15.986328 L 15.005859 17.984375 L 16.005859 17.984375 L 16.279297 17.984375 C 16.279297 17.984375 17.005859 17.984614 17.005859 17.257812 L 17.005859 15.986328 L 17.306641 15.986328 C 17.694441 15.986328 18.005859 15.67998 18.005859 15.298828 L 18.005859 5.6738281 C 18.005859 5.2926761 17.694441 4.9863281 17.306641 4.9863281 L 6 4.9863281 z M 11 7 L 13 7 L 13 9 L 11 9 L 11 7 z M 11 10 L 13 10 L 13 14 L 11 14 L 11 10 z"/>
</svg>

<svg xmlns="http://www.w3.org/2000/svg" width="22" height="22"><defs><style id="current-color-scheme" type="text/css"></style></defs><path d="M3.02 3.986c-1.35-.026-1.364 2.008-.014 2v11c-.02 1.347 2.001 1.35 1.998.014H5V4.957a.997.997 0 0 0-.994-.97H3.02zm2.98 1v11h1.006v1.274c0 .727.726.726.726.726h1.274v-2h2v1.996h2v-1.996h2v1.998H16.279s.727 0 .727-.726v-1.272h.3c.388 0 .7-.306.7-.687V5.674a.691.691 0 0 0-.7-.688H6zM11 7h2v2h-2V7zm0 3h2v4h-2v-4z" fill="currentColor" color="#323232"/></svg>
